assets/icons/utility/currency_input.svg

<?xml version="1.0"?><svg xmlns="http://www.w3.org/2000/svg" width="52" height="52" viewBox="0 0 52 52"><path fill="#fff" d="m35.9 37.6c2.7-4.5 2.2-10.4-1.7-14.3-4.5-4.5-11.9-4.5-16.4 0-3.9 3.9-4.4 9.8-1.7 14.3h19.8z m13.6-30.4v37.6c0 2.6-2.1 4.7-4.7 4.7h-37.6c-2.6 0-4.7-2.1-4.7-4.7v-37.6c0-2.6 2.1-4.7 4.7-4.7h37.6c2.6 0 4.7 2.1 4.7 4.7z m-39.2 36h31.3c0.9 0 1.6-0.7 1.6-1.6v-31.3c0-0.9-0.7-1.6-1.6-1.6h-31.3c-0.9 0-1.6 0.7-1.6 1.6v31.3c0.1 0.9 0.8 1.6 1.6 1.6z"></path></svg>

<svg xmlns="http://www.w3.org/2000/svg" x="0px" y="0px"
	 width="52px" height="52px" viewBox="0 0 52 52" enable-background="new 0 0 52 52" xml:space="preserve">
<g>
	<path fill="#FFFFFF" d="M35.9,37.6c2.7-4.5,2.2-10.4-1.7-14.3c-4.5-4.5-11.9-4.5-16.4,0c-3.9,3.9-4.4,9.8-1.7,14.3H35.9z"/>
</g>
<path fill="#FFFFFF" d="M49.5,7.2v37.6c0,2.6-2.1,4.7-4.7,4.7H7.2c-2.6,0-4.7-2.1-4.7-4.7V7.2c0-2.6,2.1-4.7,4.7-4.7h37.6
	C47.4,2.5,49.5,4.6,49.5,7.2z M10.3,43.2h31.3c0.9,0,1.6-0.7,1.6-1.6V10.3c0-0.9-0.7-1.6-1.6-1.6H10.3c-0.9,0-1.6,0.7-1.6,1.6v31.3
	C8.8,42.5,9.5,43.2,10.3,43.2z"/>
</svg>
